packages/components/src/components/icon/wallet/ic-wallet-sticpay-dark.svg

<svg width="40" height="25" viewBox="0 0 40 25" fill="none" xmlns="http://www.w3.org/2000/svg">
<path d="M7.06328 9.38322C7.66826 9.37427 8.2643 9.53105 8.78736 9.83613L8.25771 11.0885C7.90461 10.8719 7.5049 10.7448 7.09247 10.7179C6.95029 10.7076 6.80905 10.749 6.69512 10.8342C6.59954 10.9237 6.54917 11.0508 6.55717 11.1812C6.55293 11.3201 6.59483 11.4562 6.67675 11.5682C6.82741 11.7476 6.99878 11.9086 7.18757 12.0475C7.46911 12.257 7.7064 12.5197 7.88672 12.8205C8.04302 13.1021 8.12212 13.4204 8.11741 13.7424C8.14754 14.2918 7.93238 14.8262 7.52891 15.2014C7.06658 15.5752 6.48137 15.764 5.88722 15.731C5.60615 15.7334 5.32555 15.7 5.05296 15.6303C4.81049 15.5658 4.58121 15.4589 4.375 15.3149V13.8403C4.61558 13.9971 4.87405 14.1228 5.1457 14.216C5.39994 14.3111 5.66877 14.3629 5.94042 14.37C6.10143 14.3813 6.26104 14.3342 6.39051 14.2372C6.4955 14.144 6.55246 14.0074 6.54399 13.8667C6.54399 13.7932 6.52798 13.7207 6.49691 13.6548C6.45924 13.5832 6.41216 13.5164 6.35896 13.4561C6.30058 13.3874 6.14145 13.2443 5.88722 13.0192C5.61086 12.8008 5.37875 12.531 5.20455 12.2245C5.05766 11.9397 4.98234 11.6238 4.98422 11.3032C4.97998 10.9543 5.07179 10.6106 5.24928 10.3098C5.42536 10.0155 5.68242 9.77822 5.99079 9.6271C6.32365 9.46184 6.69135 9.37851 7.06328 9.38322ZM18.6756 9.37522C19.3578 9.36862 20.0268 9.56071 20.6012 9.92888L20.0104 11.2156C19.7938 11.0772 19.564 10.9599 19.3249 10.8662C19.1177 10.7872 18.8978 10.7467 18.6756 10.7471C18.3771 10.7453 18.0904 10.8648 17.8814 11.0781C17.6347 11.3333 17.453 11.644 17.3517 11.9839C17.2166 12.3874 17.1493 12.8107 17.1531 13.2363C17.1305 13.5352 17.2096 13.8332 17.3781 14.0814C17.5372 14.2716 17.7769 14.3747 18.0245 14.3591C18.251 14.3582 18.477 14.3295 18.6973 14.2744C18.9694 14.1976 19.2349 14.0992 19.4915 13.9806V15.3417C18.9388 15.5973 18.3367 15.7263 17.7279 15.7202C17.1272 15.7579 16.5405 15.5291 16.1229 15.0955C15.7468 14.6797 15.5617 14.0889 15.5617 13.3238C15.5523 12.6172 15.6917 11.9161 15.9695 11.2664C16.1978 10.6968 16.5857 10.2057 17.0867 9.85167C17.5556 9.53435 18.1102 9.36815 18.6756 9.37522ZM13.3791 9.47079L13.1145 10.8314H11.8325L10.882 15.6359H9.31749L10.2657 10.8319H8.99687L9.26193 9.47079H13.3796H13.3791ZM15.5194 9.47079L14.2845 15.6359H12.6931L13.9299 9.47032H15.5189L15.5194 9.47079ZM24.4439 9.95007C24.83 10.2952 25.0371 10.7989 25.0051 11.3163C25.0366 11.9472 24.7852 12.5588 24.3191 12.9849C23.7881 13.4128 23.1172 13.628 22.4364 13.5884H22.0922L21.6897 15.6359H20.1243L21.3611 9.47079H22.8549C23.4246 9.43265 23.9896 9.60261 24.4439 9.95007ZM29.2903 9.47079L29.78 15.6359H28.2546L28.2094 14.4811H26.4222L25.9185 15.6359H24.2928L27.2748 9.47032H29.2899L29.2903 9.47079ZM32.2719 9.47079L32.6297 11.7561L33.8797 9.47032H35.625L33.1749 13.2414L32.6905 15.6251H31.1227L31.6048 13.2414L30.6566 9.47032H32.2719V9.47079ZM28.1063 10.4529C28.0441 10.6925 27.9627 10.926 27.8629 11.152L26.9862 13.1567H28.1595L28.0903 11.3695V11.0065C28.0903 10.7947 28.0903 10.6092 28.1063 10.4529ZM22.9025 10.8159H22.6643L22.3837 12.2405H22.6483C22.8719 12.249 23.0875 12.1591 23.2386 11.9943C23.3837 11.8187 23.4566 11.5941 23.443 11.3667C23.4491 11.2198 23.3978 11.0762 23.2999 10.9665C23.1944 10.863 23.0503 10.8083 22.9025 10.8159Z" fill="#F25822"/>
</svg>

<svg width="40" height="25" fill="none" xmlns="http://www.w3.org/2000/svg"><path d="M7.063 9.383a3.325 3.325 0 011.724.453l-.53 1.252a2.545 2.545 0 00-1.165-.37.592.592 0 00-.397.116.438.438 0 00-.138.347.623.623 0 00.12.387c.15.18.322.34.51.48.282.209.52.472.7.772.156.282.235.6.23.922.03.55-.185 1.084-.588 1.46a2.4 2.4 0 01-1.642.529 3.256 3.256 0 01-.834-.1 2.15 2.15 0 01-.678-.316V13.84c.24.157.5.283.77.376.255.095.524.147.795.154a.672.672 0 00.45-.133.459.459 0 00.154-.37.497.497 0 00-.047-.212 1.02 1.02 0 00-.138-.199 6.882 6.882 0 00-.472-.437 2.737 2.737 0 01-.682-.794 1.983 1.983 0 01-.22-.922 1.91 1.91 0 01.264-.993c.176-.295.433-.532.742-.683.333-.165.7-.248 1.072-.244zm11.613-.008a3.505 3.505 0 011.925.554l-.59 1.287a3.953 3.953 0 00-.686-.35 1.813 1.813 0 00-.65-.119 1.103 1.103 0 00-.794.331 2.213 2.213 0 00-.53.906 3.837 3.837 0 00-.198 1.252c-.022.3.057.597.225.845.16.19.399.294.646.278.227 0 .453-.03.673-.085a5.37 5.37 0 00.794-.293v1.36a4.102 4.102 0 01-1.763.38 2.05 2.05 0 01-1.605-.626c-.376-.415-.561-1.006-.561-1.771-.01-.707.13-1.408.408-2.058.228-.57.616-1.06 1.117-1.414a2.774 2.774 0 011.589-.477zm-5.297.096l-.264 1.36h-1.283l-.95 4.805H9.317l.949-4.804h-1.27l.266-1.361h4.118zm2.14 0l-1.235 6.165h-1.59L13.93 9.47h1.589zm8.925.48c.386.344.593.848.561 1.365.032.631-.22 1.243-.686 1.669a2.746 2.746 0 01-1.883.603h-.344l-.402 2.048h-1.566l1.237-6.165h1.494a2.357 2.357 0 011.589.48zm4.846-.48l.49 6.165h-1.525l-.046-1.155h-1.787l-.503 1.155h-1.626l2.982-6.166h2.015zm2.982 0l.358 2.285 1.25-2.286h1.745l-2.45 3.771-.484 2.384h-1.568l.482-2.384-.948-3.77h1.615zm-4.166.982c-.062.24-.143.473-.243.699l-.877 2.005h1.174l-.07-1.787v-.363c0-.212 0-.398.016-.554zm-5.204.363h-.238l-.28 1.425h.264a.761.761 0 00.59-.247.901.901 0 00.205-.627.566.566 0 00-.143-.4.529.529 0 00-.398-.151z" fill="#F25822"/></svg>
